dist/svgs/unicons/line/lock-access.svg

<svg xmlns="http://www.w3.org/2000/svg" viewBox="0 0 24 24"><path d="M21 2h-6a1 1 0 000 2h5v5a1 1 0 002 0V3a1 1 0 00-1-1zm0 12a1 1 0 00-1 1v5h-5a1 1 0 000 2h6a1 1 0 001-1v-6a1 1 0 00-1-1zm-9-8a3 3 0 00-3 3v1a2 2 0 00-2 2v4a2 2 0 002 2h6a2 2 0 002-2v-4a2 2 0 00-2-2V9a3 3 0 00-3-3zm-1 3a1 1 0 012 0v1h-2zm4 7H9v-4h6zM3 10a1 1 0 001-1V4h5a1 1 0 000-2H3a1 1 0 00-1 1v6a1 1 0 001 1zm6 10H4v-5a1 1 0 00-2 0v6a1 1 0 001 1h6a1 1 0 000-2z"/></svg>

<svg xmlns="http://www.w3.org/2000/svg" viewBox="0 0 24 24"><path d="M21,2H15a1,1,0,0,0,0,2h5V9a1,1,0,0,0,2,0V3A1,1,0,0,0,21,2Zm0,12a1,1,0,0,0-1,1v5H15a1,1,0,0,0,0,2h6a1,1,0,0,0,1-1V15A1,1,0,0,0,21,14ZM12,6A3,3,0,0,0,9,9v1a2,2,0,0,0-2,2v4a2,2,0,0,0,2,2h6a2,2,0,0,0,2-2V12a2,2,0,0,0-2-2V9A3,3,0,0,0,12,6ZM11,9a1,1,0,0,1,2,0v1H11Zm4,7H9V12h6ZM3,10A1,1,0,0,0,4,9V4H9A1,1,0,0,0,9,2H3A1,1,0,0,0,2,3V9A1,1,0,0,0,3,10ZM9,20H4V15a1,1,0,0,0-2,0v6a1,1,0,0,0,1,1H9a1,1,0,0,0,0-2Z"/></svg>
